symbols/web/tap_and_play/materialsymbolsoutlined/tap_and_play_wght300fill1_40px.svg

<svg xmlns="http://www.w3.org/2000/svg" height="40" width="40"><path d="M9.167 19.75V5.125q0-1.083.771-1.854.77-.771 1.854-.771h16.416q1.084 0 1.854.771.771.771.771 1.854v29.75q0 1.083-.771 1.854-.77.771-1.854.771h-1.291v-6.083h1.833V8.583h-17.5V19.75Zm0 17.75v-4.333q1.833 0 3.083 1.25 1.25 1.25 1.25 3.083Zm7.583 0q0-3.167-2.208-5.375-2.209-2.208-5.375-2.208v-2.125q4.041 0 6.875 2.833 2.833 2.833 2.833 6.875Zm5.375 0q0-5.417-3.771-9.188-3.771-3.77-9.187-3.77v-2.084q3.125 0 5.875 1.188 2.75 1.187 4.77 3.208 2.021 2.021 3.209 4.771 1.187 2.75 1.187 5.875Z"/></svg>

<svg xmlns="http://www.w3.org/2000/svg" height="40" width="40"><path d="M9.167 19.75V5.125Q9.167 4.042 9.938 3.271Q10.708 2.5 11.792 2.5H28.208Q29.292 2.5 30.062 3.271Q30.833 4.042 30.833 5.125V34.875Q30.833 35.958 30.062 36.729Q29.292 37.5 28.208 37.5H26.917V31.417H28.75V8.583H11.25V19.75ZM9.167 37.5V33.167Q11 33.167 12.25 34.417Q13.5 35.667 13.5 37.5ZM16.75 37.5Q16.75 34.333 14.542 32.125Q12.333 29.917 9.167 29.917V27.792Q13.208 27.792 16.042 30.625Q18.875 33.458 18.875 37.5ZM22.125 37.5Q22.125 32.083 18.354 28.312Q14.583 24.542 9.167 24.542V22.458Q12.292 22.458 15.042 23.646Q17.792 24.833 19.812 26.854Q21.833 28.875 23.021 31.625Q24.208 34.375 24.208 37.5Z"/></svg>
